(
    // NN.ar binaries
    osx_AArch64: "https://github.com/elgiano/nn.ar/releases/download/v0.0.6-updated/nn.ar-macOS-latest-arm64.zip",
    osx_x86_64: "https://github.com/elgiano/nn.ar/releases/download/v0.0.6-updated/nn.ar-macOS-x64.zip",
    linux_x86_64: "https://github.com/elgiano/nn.ar/releases/download/v0.0.6-updated/nn.ar-Linux-x64.zip",
    windows_x86_64: "https://github.com/elgiano/nn.ar/releases/download/v0.0.6-updated/nn.ar-Windows-x64.zip",
)