(
    // NN.ar binaries
    // NOTE these github links don't work with Download...
    // OSXPlatform_AArch64: "http://localhost:8000/nn.ar-macOS-arm64.zip",
    OSXPlatform_AArch64: "http://github.com/elgiano/nn.ar/releases/download/v0.0.3-alpha/nn.ar-macOS-arm64.zip",
    OSXPlatform_x86_64: "https://github.com/elgiano/nn.ar/releases/download/v0.0.3-alpha/nn.ar-macOS-x64.zip",
    LinuxPlatform_x86_64: "https://github.com/elgiano/nn.ar/releases/download/v0.0.3-alpha/nn.ar-Linux-x64.zip",
    Platform_x86_64: "https://github.com/elgiano/nn.ar/releases/download/v0.0.3-alpha/nn.ar-Windows-x64.zip",
)